src/views/images/ruble.svg

<svg width="401px" height="512px" viewBox="0 0 401 512" version="1.1">
    <g fill="#000000">
        <path d="M37.3392661,415.669964 L0.218512782,415.669964 L0.218512782,351.418376 L37.3392661,351.418376 L37.3392661,306.369781 L0.228911936,306.369781 L0.228911936,243.068065 L37.3392661,243.068065 L37.3392661,0 L228.215248,0 C282.561544,0 324.77842,14.0535191 354.867142,42.160979 C384.955865,70.2684389 400,107.276039 400,153.18489 C400,199.796428 384.955865,236.979697 354.867142,264.735814 C324.77842,292.491931 282.561544,306.369781 228.215248,306.369781 L112.263087,306.369781 L112.263087,351.418376 L261.808044,351.418376 L261.808044,415.669964 L112.263087,415.669964 L112.263087,511.553212 L37.3392661,511.553212 L37.3392661,415.669964 Z M112.263087,242.263191 L228.215248,242.263191 C262.735642,242.263191 288.508928,232.952735 305.53588,214.331542 C322.562831,195.71035 326.076179,182.229262 326.076179,153.887573 C326.076179,125.545885 322.50452,111.889127 305.360946,92.916592 C288.217372,73.9440566 262.502396,64.4579312 228.215248,64.4579312 L112.263087,64.4579312 L112.263087,242.263191 L112.263087,242.263191 Z"></path>
    </g>
</svg>

<svg width="401" height="512" viewBox="0 0 401 512">
    <path d="M37.339 415.67h-37.121v-64.252h37.121v-45.049h-37.11v-63.302h37.11v-243.068h190.876c54.346 0 96.563 14.054 126.652 42.161s45.133 65.115 45.133 111.024c0 46.612-15.044 83.795-45.133 111.551-30.089 27.756-72.306 41.634-126.652 41.634h-115.952v45.049h149.545v64.252h-149.545v95.883h-74.924v-95.883zm74.924-173.407h115.952c34.52 0 60.294-9.31 77.321-27.932 17.027-18.621 20.54-32.102 20.54-60.444 0-28.342-3.572-41.998-20.715-60.971-17.144-18.973-42.859-28.459-77.146-28.459h-115.952v177.805z"/>
</svg>
